svg/fluentui-system-icons/ic_fluent_reading_list_add_16_regular.svg

<svg width="16" height="16" viewBox="0 0 16 16" fill="none" xmlns="http://www.w3.org/2000/svg">
<path d="M3.00122 3.99853C3.00122 3.44544 3.44959 2.99707 4.00268 2.99707C4.34997 2.99707 4.65628 3.17343 4.83666 3.4438C4.98991 3.67351 5.30037 3.73549 5.53008 3.58223C5.75979 3.42898 5.82177 3.11852 5.66852 2.88881C5.31055 2.35225 4.6982 1.99707 4.00268 1.99707C2.89731 1.99707 2.00122 2.89316 2.00122 3.99853C2.00122 5.10391 2.89731 6 4.00268 6C4.01534 6 4.02788 5.99953 4.0403 5.9986C4.05277 5.99953 4.06536 6.00001 4.07806 6.00001L7.33685 6.00001C8.22853 5.37208 9.31524 5.00248 10.4881 5.00001L4.07806 5.00001C4.06541 5.00001 4.05286 5.00048 4.04045 5.0014C4.02798 5.00047 4.01539 5 4.00268 5C3.44959 5 3.00122 4.55163 3.00122 3.99853ZM3.49597 7.00195H6.25549C6.00208 7.30909 5.78135 7.6442 5.59865 8.00195H3.49597C3.21983 8.00195 2.99597 7.7781 2.99597 7.50195C2.99597 7.22581 3.21983 7.00195 3.49597 7.00195ZM2.50122 9H5.20697C5.11582 9.32228 5.05331 9.65659 5.02236 10H2.50122C2.22508 10 2.00122 9.77614 2.00122 9.5C2.00122 9.22386 2.22508 9 2.50122 9ZM3.49597 11H5.02236C5.05331 11.3434 5.11582 11.6777 5.20697 12H3.49597C3.21983 12 2.99597 11.7761 2.99597 11.5C2.99597 11.2239 3.21983 11 3.49597 11ZM7.49994 3C7.2238 3 6.99994 3.22386 6.99994 3.5C6.99994 3.77614 7.2238 4 7.49994 4H13.4999C13.7761 4 13.9999 3.77614 13.9999 3.5C13.9999 3.22386 13.7761 3 13.4999 3H7.49994ZM14.9999 10.5C14.9999 12.9853 12.9852 15 10.4999 15C8.01466 15 5.99994 12.9853 5.99994 10.5C5.99994 8.01472 8.01466 6 10.4999 6C12.9852 6 14.9999 8.01472 14.9999 10.5ZM10.9999 8.5C10.9999 8.22386 10.7761 8 10.4999 8C10.2238 8 9.99994 8.22386 9.99994 8.5V10H8.49994C8.2238 10 7.99994 10.2239 7.99994 10.5C7.99994 10.7761 8.2238 11 8.49994 11H9.99994V12.5C9.99994 12.7761 10.2238 13 10.4999 13C10.7761 13 10.9999 12.7761 10.9999 12.5V11H12.4999C12.7761 11 12.9999 10.7761 12.9999 10.5C12.9999 10.2239 12.7761 10 12.4999 10H10.9999V8.5Z" fill="#212121"/>
</svg>

<svg xmlns="http://www.w3.org/2000/svg" width="16" height="16"><path d="M3.001 3.999a1.001 1.001 0 0 1 1.836-.555.5.5 0 1 0 .832-.555A2 2 0 0 0 2 3.999 2.001 2.001 0 0 0 4.078 6h3.259a5.475 5.475 0 0 1 3.151-1h-6.41l-.038.001A1.001 1.001 0 0 1 3 3.998Zm.495 3.003h2.76a5.508 5.508 0 0 0-.657 1H3.496a.5.5 0 1 1 0-1ZM2.501 9h2.706a5.48 5.48 0 0 0-.185 1h-2.52a.5.5 0 0 1 0-1Zm.995 2h1.526a5.5 5.5 0 0 0 .185 1H3.496a.5.5 0 0 1 0-1ZM7.5 3a.5.5 0 0 0 0 1h6a.5.5 0 1 0 0-1h-6Zm7.5 7.5a4.5 4.5 0 1 1-9 0 4.5 4.5 0 0 1 9 0Zm-4-2a.5.5 0 1 0-1 0V10H8.5a.5.5 0 0 0 0 1H10v1.5a.5.5 0 0 0 1 0V11h1.5a.5.5 0 1 0 0-1H11V8.5Z"/></svg>
